svgs/regular/clipboard-medical.svg

<svg xmlns="http://www.w3.org/2000/svg" viewBox="0 0 384 512"><!-- Font Awesome Pro 6.0.0-alpha2 by @fontawesome - https://fontawesome.com License - https://fontawesome.com/license (Commercial License) --><path d="M320 64H270.387C262.973 27.484 230.701 0 192 0S121.027 27.484 113.613 64H64C28.654 64 0 92.656 0 128V448C0 483.344 28.654 512 64 512H320C355.346 512 384 483.344 384 448V128C384 92.656 355.346 64 320 64ZM192 48C205.234 48 216 58.766 216 72S205.234 96 192 96S168 85.234 168 72S178.766 48 192 48ZM336 448C336 456.82 328.822 464 320 464H64C55.178 464 48 456.82 48 448V128C48 119.18 55.178 112 64 112H82.264C80.932 117.141 80 122.441 80 128V144C80 152.836 87.164 160 96 160H288C296.836 160 304 152.836 304 144V128C304 122.441 303.068 117.141 301.736 112H320C328.822 112 336 119.18 336 128V448ZM272 288H224V240C224 231.199 216.801 224 208 224H176C167.199 224 160 231.199 160 240V288H112C103.199 288 96 295.199 96 304V336C96 344.797 103.199 352 112 352H160V400C160 408.797 167.199 416 176 416H208C216.801 416 224 408.797 224 400V352H272C280.801 352 288 344.797 288 336V304C288 295.199 280.801 288 272 288Z"/></svg>

<svg xmlns="http://www.w3.org/2000/svg" viewBox="0 0 384 512"><!--! Font Awesome Pro 6.4.0 by @fontawesome - https://fontawesome.com License - https://fontawesome.com/license (Commercial License) Copyright 2023 Fonticons, Inc. --><path d="M320 64H280h-9.6C263 27.5 230.7 0 192 0s-71 27.5-78.4 64H104 64C28.7 64 0 92.7 0 128V448c0 35.3 28.7 64 64 64H320c35.3 0 64-28.7 64-64V128c0-35.3-28.7-64-64-64zM80 112v24c0 13.3 10.7 24 24 24h88 88c13.3 0 24-10.7 24-24V112h16c8.8 0 16 7.2 16 16V448c0 8.8-7.2 16-16 16H64c-8.8 0-16-7.2-16-16V128c0-8.8 7.2-16 16-16H80zm88-32a24 24 0 1 1 48 0 24 24 0 1 1 -48 0zm-8 160v48H112c-8.8 0-16 7.2-16 16v32c0 8.8 7.2 16 16 16h48v48c0 8.8 7.2 16 16 16h32c8.8 0 16-7.2 16-16V352h48c8.8 0 16-7.2 16-16V304c0-8.8-7.2-16-16-16H224V240c0-8.8-7.2-16-16-16H176c-8.8 0-16 7.2-16 16z"/></svg>
